X:1
T:Belted Plaid (The)
T:Belted Plaid (The)
T:Alexander Walker
C:Alexander Walker
L:1/8
M:2/2
K:C
V:1 treble 
V:1
 E | AcBc AEEC | Ec E^G A3 B | cecA BdBG | DFE^G, (A,2 A,) :| E | A/A/A cA aAce | G/G/G BG gGBc | %8
 A/A/A cA aAce | gdB^G A3 B | Aace aAce | GgBd gGBG | cde^f gage | dBGB (A2 A) || %14

